svgs/sharp-solid/chess.svg

<svg xmlns="http://www.w3.org/2000/svg" viewBox="0 0 512 512"><!--! Font Awesome Pro 6.6.0 by @fontawesome - https://fontawesome.com License - https://fontawesome.com/license (Commercial License) Copyright 2024 Fonticons, Inc. --><path d="M144 0l0 16 0 16 16 0 16 0 0 32-16 0-16 0 0 32 72 0 0 24-29.3 88 21.3 0 0 48-24 0-5.8 0 17.5 128L60.4 384 77.8 256 72 256l-24 0 0-48 21.3 0L40 120l0-24 72 0 0-32L96 64 80 64l0-32 16 0 16 0 0-16 0-16 32 0zM48 416l160 0 4.1 0 2.4 3.4 40 56 1.5 2.1 0 2.6 0 24 0 8-8 0L8 512l-8 0 0-8 0-24 0-2.6 1.5-2.1 40-56 2.4-3.4 4.1 0zM304 272l0-80 40 0 0 32 24 0 0-32 64 0 0 32 24 0 0-32 40 0 0 80-36.8 40 3.3 72L337 384l2.2-72L304 272zm80 64l32 0 0-32c0-8.8-7.2-16-16-16s-16 7.2-16 16l0 32zm-48 80l128 0 4.1 0 2.4 3.4 40 56 1.5 2.1 0 2.6 0 24 0 8-8 0-208 0-8 0 0-8 0-24 0-2.6 1.5-2.1 40-56 2.4-3.4 4.1 0z"/></svg>

<svg xmlns="http://www.w3.org/2000/svg" viewBox="0 0 512 512"><!--! Font Awesome Pro 6.4.0 by @fontawesome - https://fontawesome.com License - https://fontawesome.com/license (Commercial License) Copyright 2023 Fonticons, Inc. --><path d="M144 0V16 32h16 16V64H160 144V96h72v24l-29.3 88H208v48H184h-5.8l17.5 128H60.4L77.8 256H72 48V208H69.3L40 120V96h72V64H96 80V32H96h16V16 0h32zM48 416H208h4.1l2.4 3.4 40 56 1.5 2.1V480v24 8h-8H8 0v-8V480v-2.6l1.5-2.1 40-56 2.4-3.4H48zM304 272V192h40v32h24V192h64v32h24V192h40v80l-36.8 40 3.3 72H337l2.2-72L304 272zm80 64h32V304c0-8.8-7.2-16-16-16s-16 7.2-16 16v32zm-48 80H464h4.1l2.4 3.4 40 56 1.5 2.1V480v24 8h-8H296h-8v-8V480v-2.6l1.5-2.1 40-56 2.4-3.4H336z"/></svg>
